Adwaita++-Light/panel/16/keyboard-battery-good.svg

<svg height="16" width="16" xmlns="http://www.w3.org/2000/svg">
  <g fill="#444">
    <path d="m2.5 1c-.277 0-.5.78-.5.5v.5h-2v12.5c0 .28.223.5.5.5h6c.277 0 .5-.22.5-.5v-12.5h-.5-1.5v-.5c0-.27-.223-.5-.5-.5z" opacity=".3"/>
    <path d="m0 5v9.5c0 .28.223.5.5.5h6c.277 0 .5-.22.5-.5v-9.5z"/>
    <path d="m10 2c-.554 0-1 .45-1 1v11c0 .55.446 1 1 1h5c.554 0 1-.45 1-1v-11c0-.55-.446-1-1-1zm0 2h1v1h-1zm2 0h1v1h-1zm2 1h1v7h-1zm-4 1h1v1h-1zm2 0h1v1h-1zm-2 2h1v1h-1zm2 0h1v1h-1zm-2 2h1v1h-1zm2 0h1v1h-1zm-2 2h1v1h-1zm2 0h1v1h-1z" fill-rule="evenodd"/>
  </g>
</svg>

<svg xmlns="http://www.w3.org/2000/svg" width="16" height="16" version="1.1">
 <defs>
  <style id="current-color-scheme" type="text/css">
   .ColorScheme-Text { color:#444444; } .ColorScheme-Highlight { color:#4285f4; }
  </style>
 </defs>
 <path style="opacity:0.3;fill:currentColor" class="ColorScheme-Text" d="M 2.5,1 C 2.223,1 2,1.78 2,1.5 V 2 H 0 V 2 14.5 C 0,14.78 0.223,15 0.5,15 H 6.5 C 6.777,15 7,14.78 7,14.5 V 2 H 6.5 5 V 1.5 C 5,1.23 4.777,1 4.5,1 Z"/>
 <path style="fill:currentColor" class="ColorScheme-Text" d="M 0,5 V 14.5 C 0,14.78 0.223,15 0.5,15 H 6.5 C 6.777,15 7,14.78 7,14.5 V 5 Z"/>
 <path style="fill:currentColor;fill-rule:evenodd" class="ColorScheme-Text" d="M 10,2 C 9.446,2 9,2.45 9,3 V 14 C 9,14.55 9.446,15 10,15 H 15 C 15.554,15 16,14.55 16,14 V 3 C 16,2.45 15.554,2 15,2 Z M 10,4 H 11 V 5 H 10 Z M 12,4 H 13 V 5 H 12 Z M 14,5 H 15 V 12 H 14 Z M 10,6 H 11 V 7 H 10 Z M 12,6 H 13 V 7 H 12 Z M 10,8 H 11 V 9 H 10 Z M 12,8 H 13 V 9 H 12 Z M 10,10 H 11 V 11 H 10 Z M 12,10 H 13 V 11 H 12 Z M 10,12 H 11 V 13 H 10 Z M 12,12 H 13 V 13 H 12 Z"/>
</svg>
